X: 140
T: West Mabou Reel
T: Reel, G
L: 1/16
M: C|
K: G
g4d2g2 e4d2B2| g4d2g2 e2a2a2b2| g4d2g2 e4d2B2| A2B2G2A2 B2G2G2e2| 
g4d2g2 e4d2B2| g4d2g2 e2a2a2g2| b2g2a2f2 g2f2e2d2| e2f2g2a2 b2a2g2f2|| 
e2d2d2B2 d2e2d2B2| A2B2G2A2 B2A2A2g2| e2d2d2B2 d2e2d2B2| A2B2G2A2 B2G2G2g2| 
e2d2d2B2 d2e2d2B2| A2B2G2A2 B2A2A2b2| g4d2g2 e4d2B2| A2B2G2A2 B2G2G2e2|| 
D: Donald Angus Beaton, A Musical Legacy, DAB4-1985
D: Buddy MacMaster, Glencoe Hall, BM-91
D: Wendy MacIsaac, That's What You Get, WMT004
D: Donny LeBlanc, Rosining Up the Bow
